icon-svg/litterbox.svg

<svg xmlns="http://www.w3.org/2000/svg" fill="#44739e" viewBox="0 0 24 24"><path d="M15.069 11.032c-.049-.2.091-.355.27-.3a.232.232 0 0 1-.088.455c-.1 0-.153-.042-.182-.156m-1.406-.084c-.137-.131-.108-.274.068-.368.091-.049.147-.039.235.042.146.13.146.218.006.345s-.166.127-.312-.016zm-.482-1.354c-.162-.2.075-.488.283-.358a.2.2 0 0 1 .043.348c-.121.12-.231.124-.326.01M4.323 21.065a1.019 1.019 0 0 1-.611-.837c-.124-.566-.619-2.971-.944-4.565-.1-.482-.1-.5-.293-.531a.72.72 0 0 1-.338-.188C2.013 14.813 2 14.735 2 14.3c0-.4.023-.521.12-.651.157-.215.235-.231 1.029-.231h.67l.111-.375a2.864 2.864 0 0 1 .781-1.256.815.815 0 0 0 .267-.423c.152-.82.263-1.142.393-1.142.313 0 .362.13.228.628a.74.74 0 0 0-.039.3 1.75 1.75 0 0 0 .482-.072l.455-.1.228-1.078c.27-1.3.325-1.487.449-1.584a6.58 6.58 0 0 1 1.556-.079h1.454l.153.2.153.2.352-.24c.2-.134.344-.284.344-.329l-.016-.205a.726.726 0 0 0-.2-.3c-.182-.2-.182-.2-.866-.2-.872 0-.878-.013-.81-.813.033-.3.091-.993.13-1.543.078-1.119.052-1.249-.3-1.5a.684.684 0 0 0-.885.078l-.228.2.013.781c.01.423.042 1.008.075 1.285A3.56 3.56 0 0 1 8.1 7.277a1.57 1.57 0 0 1-.7.078c-.856 0-1.055.114-1.165.664-.244 1.214-.283 1.324-.479 1.324-.244 0-.267-.149-.13-.8.218-.97.3-1.162.563-1.393a1.626 1.626 0 0 1 1.139-.339h.384l-.039-.465c-.086-1.074-.144-2.356-.112-2.506a1.218 1.218 0 0 1 1.432-.94 1.32 1.32 0 0 1 .911.794c.1.26.1.364.039 1.194l-.1 1.4-.033.5h.39a1.423 1.423 0 0 1 1.458.86c.042.2.052.2.41.045a1.39 1.39 0 0 1 1-.045 7.48 7.48 0 0 1 2 1.259c.508.423.553.488.465.651s-.244.153-.514-.078a5.01 5.01 0 0 0-2.408-1.39c-.787 0-2.1.967-4.09 3.033-.456.469-.554.517-.986.465q-.321-.039-.642-.075a2.4 2.4 0 0 0-2.375 1.374 2.76 2.76 0 0 0-.2.462 9.2 9.2 0 0 0 1.708.081c1.855.02 1.819.013 2.246.4.26.241.357.456.51 1.156a3.6 3.6 0 0 0 .173.618c.026.026 1.412.039 3.078.032l3.033-.019.082-.332.149-.631a1.58 1.58 0 0 1 .807-1.107 5.61 5.61 0 0 1 1.823-.117c1.5-.016 1.627-.032 1.627-.12 0-.124-.212-.358-.456-.531a2.01 2.01 0 0 0-.976-.263c-.182 0-.261-.049-.5-.293q-.2-.209-.391-.433-.37-.47-.787-.9c-.391-.423-.413-.456-.335-.6.088-.163.276-.157.442.016.423.446.781.846 1.11 1.256l.374.456.407.045a1.9 1.9 0 0 1 1.555 1.058l.157.3h.722c.709 0 .723 0 .918.176s.2.185.2.69c0 .455-.016.53-.14.66a.73.73 0 0 1-.335.189c-.192.033-.2.046-.293.531l-.212 1.033c-.065.293-.2.96-.3 1.474q-.174.892-.371 1.78a1.65 1.65 0 0 1-.325.862c-.29.326.065.313-8.038.309-4.842 0-7.569-.026-7.663-.065zm15.347-.55a2.47 2.47 0 0 0 .163-.557l.153-.693c.1-.439.293-1.389.472-2.291.179-.878.253-1.253.338-1.643l.033-.166-1.907.016c-1.627.013-1.914.029-1.953.108a5.47 5.47 0 0 0-.26.95 1.42 1.42 0 0 1-.632.983l-.277.178H8.2l-.277-.175c-.361-.228-.537-.554-.712-1.3a2.28 2.28 0 0 0-.228-.677 1.735 1.735 0 0 0-.7-.078c-.716 0-.846-.033-.911-.195a.286.286 0 0 1 .13-.244c.13-.1.221-.114.807-.088 1.035.039 1.162.14 1.409 1.139a6.6 6.6 0 0 0 .248.829c.162.3.211.31 4.074.31 3.97 0 3.9.006 4.08-.384a4.1 4.1 0 0 0 .189-.612c.212-.921.332-1.107.8-1.237.13-.032 1.064-.065 2.317-.065h2.1V13.9h-2.478c-2.655 0-2.726.007-2.993.306a1.75 1.75 0 0 0-.313.778c-.169.732-.215.853-.384 1l-.179.149H8.866l-.182-.153c-.172-.13-.211-.227-.381-.976a1.71 1.71 0 0 0-.319-.781c-.247-.293-.319-.293-2.971-.293H2.534v.726h.813c.889 0 1.1.059 1.1.306 0 .163-.228.234-.787.234a3.2 3.2 0 0 0-.479.016q.31 1.623.664 3.235l.186.872c.032.13.087.436.133.677a1.83 1.83 0 0 0 .156.527c.065.082.921.091 7.687.091 6.013 0 7.621-.013 7.67-.071zM8.593 10.362c.413-.423.911-.911 1.106-1.077.293-.251.349-.329.316-.436-.042-.131-.065-.163-1.272-.163q-.62-.012-1.237.016c0 .013-.1.505-.238 1.094s-.24 1.1-.24 1.125c0 .066.338.163.6.173.192 0 .277-.065.967-.765"/></svg>

<svg xmlns="http://www.w3.org/2000/svg" fill="#44739e" width="24" height="24" version="1.1" viewBox="0 0 24 24"><path d="m 15.069,11.032 c -0.049,-0.2 0.091,-0.355 0.27,-0.3 a 0.232,0.232 0 0 1 -0.088,0.455 c -0.1,0 -0.153,-0.042 -0.182,-0.156 m -1.406,-0.084 c -0.137,-0.131 -0.108,-0.274 0.068,-0.368 0.091,-0.049 0.147,-0.039 0.235,0.042 0.146,0.13 0.146,0.218 0.006,0.345 -0.14,0.127 -0.166,0.127 -0.312,-0.016 z M 13.181,9.593 c -0.162,-0.2 0.075,-0.488 0.283,-0.358 a 0.2,0.2 0 0 1 0.043,0.348 c -0.121,0.12 -0.231,0.124 -0.326,0.01 M 4.323,21.065 A 1.019,1.019 0 0 1 3.712,20.228 C 3.588,19.662 3.093,17.257 2.768,15.663 c -0.1,-0.482 -0.1,-0.5 -0.293,-0.531 A 0.722,0.722 0 0 1 2.137,14.944 C 2.013,14.813 2,14.735 2,14.3 2,13.9 2.023,13.779 2.12,13.649 2.277,13.434 2.355,13.418 3.149,13.418 h 0.67 L 3.93,13.043 a 2.864,2.864 0 0 1 0.781,-1.256 0.815,0.815 0 0 0 0.267,-0.423 c 0.152,-0.82 0.263,-1.142 0.393,-1.142 0.313,0 0.362,0.13 0.228,0.628 A 0.742,0.742 0 0 0 5.56,11.15 1.753,1.753 0 0 0 6.042,11.078 L 6.497,10.978 6.725,9.9 C 6.995,8.6 7.05,8.413 7.174,8.316 A 6.584,6.584 0 0 1 8.73,8.237 h 1.454 l 0.153,0.2 0.153,0.2 0.352,-0.24 c 0.2,-0.134 0.344,-0.284 0.344,-0.329 L 11.17,7.863 a 0.726,0.726 0 0 0 -0.2,-0.3 c -0.182,-0.2 -0.182,-0.2 -0.866,-0.2 C 9.232,7.363 9.226,7.35 9.294,6.55 9.327,6.25 9.385,5.557 9.424,5.007 9.502,3.888 9.476,3.758 9.124,3.507 A 0.684,0.684 0 0 0 8.239,3.585 l -0.228,0.2 0.013,0.781 c 0.01,0.423 0.042,1.008 0.075,1.285 A 3.564,3.564 0 0 1 8.1,7.277 1.571,1.571 0 0 1 7.4,7.355 C 6.544,7.355 6.345,7.469 6.235,8.019 5.991,9.233 5.952,9.343 5.756,9.343 5.512,9.343 5.489,9.194 5.626,8.543 5.844,7.573 5.926,7.381 6.189,7.15 A 1.626,1.626 0 0 1 7.328,6.811 H 7.712 L 7.673,6.346 C 7.587,5.272 7.529,3.99 7.561,3.84 A 1.218,1.218 0 0 1 8.993,2.9 1.32,1.32 0 0 1 9.904,3.694 c 0.1,0.26 0.1,0.364 0.039,1.194 l -0.1,1.4 -0.033,0.5 h 0.39 a 1.423,1.423 0 0 1 1.458,0.86 c 0.042,0.2 0.052,0.2 0.41,0.045 a 1.389,1.389 0 0 1 1,-0.045 7.48,7.48 0 0 1 2,1.259 C 15.576,9.33 15.621,9.395 15.533,9.558 15.445,9.721 15.289,9.711 15.019,9.48 A 5.008,5.008 0 0 0 12.611,8.09 c -0.787,0 -2.1,0.967 -4.09,3.033 -0.456,0.469 -0.554,0.517 -0.986,0.465 Q 7.214,11.549 6.893,11.513 a 2.4,2.4 0 0 0 -2.375,1.374 2.757,2.757 0 0 0 -0.2,0.462 9.189,9.189 0 0 0 1.708,0.081 c 1.855,0.02 1.819,0.013 2.246,0.4 0.26,0.241 0.357,0.456 0.51,1.156 a 3.621,3.621 0 0 0 0.173,0.618 c 0.026,0.026 1.412,0.039 3.078,0.032 l 3.033,-0.019 0.082,-0.332 0.149,-0.631 a 1.58,1.58 0 0 1 0.807,-1.107 5.608,5.608 0 0 1 1.823,-0.117 c 1.5,-0.016 1.627,-0.032 1.627,-0.12 0,-0.124 -0.212,-0.358 -0.456,-0.531 a 2.012,2.012 0 0 0 -0.976,-0.263 c -0.182,0 -0.261,-0.049 -0.5,-0.293 q -0.2,-0.209 -0.391,-0.433 -0.37,-0.47 -0.787,-0.9 c -0.391,-0.423 -0.413,-0.456 -0.335,-0.6 0.088,-0.163 0.276,-0.157 0.442,0.016 0.423,0.446 0.781,0.846 1.11,1.256 l 0.374,0.456 0.407,0.045 a 1.9,1.9 0 0 1 1.555,1.058 l 0.157,0.3 h 0.722 c 0.709,0 0.723,0 0.918,0.176 0.195,0.176 0.2,0.185 0.2,0.69 0,0.455 -0.016,0.53 -0.14,0.66 a 0.728,0.728 0 0 1 -0.335,0.189 c -0.192,0.033 -0.2,0.046 -0.293,0.531 L 21.014,16.7 c -0.065,0.293 -0.2,0.96 -0.3,1.474 q -0.174,0.892 -0.371,1.78 a 1.649,1.649 0 0 1 -0.325,0.862 c -0.29,0.326 0.065,0.313 -8.038,0.309 -4.842,0 -7.569,-0.026 -7.663,-0.065 z m 15.347,-0.55 a 2.471,2.471 0 0 0 0.163,-0.557 l 0.153,-0.693 c 0.1,-0.439 0.293,-1.389 0.472,-2.291 0.179,-0.878 0.253,-1.253 0.338,-1.643 l 0.033,-0.166 -1.907,0.016 c -1.627,0.013 -1.914,0.029 -1.953,0.108 a 5.474,5.474 0 0 0 -0.26,0.95 1.421,1.421 0 0 1 -0.632,0.983 L 15.8,17.4 H 8.2 L 7.923,17.225 C 7.562,16.997 7.386,16.671 7.211,15.925 A 2.284,2.284 0 0 0 6.983,15.248 1.735,1.735 0 0 0 6.283,15.17 c -0.716,0 -0.846,-0.033 -0.911,-0.195 a 0.286,0.286 0 0 1 0.13,-0.244 c 0.13,-0.1 0.221,-0.114 0.807,-0.088 1.035,0.039 1.162,0.14 1.409,1.139 a 6.626,6.626 0 0 0 0.248,0.829 c 0.162,0.3 0.211,0.31 4.074,0.31 3.97,0 3.9,0.006 4.08,-0.384 a 4.122,4.122 0 0 0 0.189,-0.612 c 0.212,-0.921 0.332,-1.107 0.8,-1.237 0.13,-0.032 1.064,-0.065 2.317,-0.065 h 2.1 V 13.9 h -2.478 c -2.655,0 -2.726,0.007 -2.993,0.306 a 1.752,1.752 0 0 0 -0.313,0.778 c -0.169,0.732 -0.215,0.853 -0.384,1 l -0.179,0.149 H 8.866 L 8.684,15.98 C 8.512,15.85 8.473,15.753 8.303,15.004 A 1.71,1.71 0 0 0 7.984,14.223 C 7.737,13.93 7.665,13.93 5.013,13.93 H 2.534 v 0.726 h 0.813 c 0.889,0 1.1,0.059 1.1,0.306 0,0.163 -0.228,0.234 -0.787,0.234 a 3.192,3.192 0 0 0 -0.479,0.016 q 0.31,1.623 0.664,3.235 l 0.186,0.872 c 0.032,0.13 0.087,0.436 0.133,0.677 a 1.829,1.829 0 0 0 0.156,0.527 c 0.065,0.082 0.921,0.091 7.687,0.091 6.013,0 7.621,-0.013 7.67,-0.071 z M 8.593,10.362 C 9.006,9.939 9.504,9.451 9.699,9.285 9.992,9.034 10.048,8.956 10.015,8.849 9.973,8.718 9.95,8.686 8.743,8.686 Q 8.123,8.674 7.506,8.702 c 0,0.013 -0.1,0.505 -0.238,1.094 -0.138,0.589 -0.24,1.1 -0.24,1.125 0,0.066 0.338,0.163 0.6,0.173 0.192,0 0.277,-0.065 0.967,-0.765"/></svg>
